X:1
T:Harwell, 87.87 D
T:Lowell Mason, 1840
T:Harwell, 87.87 D
T:Public Domain
C:Lowell Mason, 1840
Z:Public Domain
%%score ( 1 2 ) 3
L:1/8
M:3/4
K:G
V:1 treble 
V:2 treble 
V:3 bass 
V:1
 [B,D]>[B,D] [DG]3 D | [DG][GB] [FA]2 [FA]2 | [Fd]>[Fd] [Gd]3 [DG] | [DB][FA] G4 | %4
 [B,D]>[B,D] [DG]3 D | [DG][GB] [FA]2 [FA]2 | [Fd]>[Fd] [Gd]3 [DG] | [DB][FA] G4 | %8
 [Ac]>[GB] [FA][GB] [Ac][Bd] | [Ac]2 [FA]2 [Bd]>[Ac] | [GB][Ac] [Bd][ce] [Bd]2 | %11
 [GB]2 [B,D]>[B,D] [DG]2- | [DG]D [DG][GB] [FA]2 | [FA]2 [Fd]>[Fd] [Gd]2- | %14
 [Gd][DG] [DB][FA] [B,G]2- | [B,G]6 z2 |] %16
V:2
 x5 D | x6 | x6 | x2 G4 | x5 D | x6 | x6 | x2 G4 | x6 | x6 | x6 | x6 | x D x4 | x6 | x6 | x8 |] %16
V:3
 G,>G, [G,B,]3 [G,B,] | [B,D][G,D] [D,D]2 [D,D]2 | [D,A,]>[D,A,] [G,B,]3 [B,,D] | %3
 [D,D][D,C] [G,,G,B,]4 | G,>G, [G,B,]3 [G,B,] | [B,D][G,D] [D,D]2 [D,D]2 | %6
 [D,A,]>[D,A,] [G,B,]3 [B,,D] | [D,D][D,C] [G,,G,B,]4 | [D,D]>[D,D] [D,D][D,D] [D,D][D,D] | %9
 [D,D]2 [D,D]2 G,>G, | G,G, G,G, G,2- | G,2 G,>G, [G,B,]2- | [G,B,][G,B,] [B,D][G,D] [D,D]2 | %13
 [D,D]2 [D,A,]>[D,A,] [G,B,]2- | [G,B,][B,,D] [D,D][D,C] [G,,G,]2- | [G,,G,]6 z2 |] %16

